X: 864
T: Grandfather's Pet
N:"Collected by F.O'Neill"
B:O'Neill's 864
Z:Transcribed by Dan G. Petersen, dangp@post6.tele.dk
M:6/8
L:1/8
K:D
e|dBA ABA|dBA ABA|d2e {g}f2d|e2d B2e|
dBA ABA|dBA ABA|d2f {g}a2g|fge d2:|
e|fgf {g}fed|e2f {a}g2e|fgf {g}fed|ecA A2e|
fgf fed|e2f g2g|agf {a}gec|d3 d2:|


